build/assets/images/icons/technologies/c-sharp.svg

<svg xmlns="http://www.w3.org/2000/svg" viewBox="0 0 48 48" width="96" height="96"><path fill="#00c853" d="M22.903 3.286a2.247 2.247 0 0 1 2.193 0l16.807 9.434A2.12 2.12 0 0 1 43 14.566v18.867c0 .762-.418 1.466-1.097 1.847l-16.807 9.434a2.247 2.247 0 0 1-2.193 0L6.096 35.28A2.122 2.122 0 0 1 5 33.434V14.567c0-.762.418-1.466 1.097-1.847l16.806-9.434z"/><path fill="#69f0ae" d="M5.304 34.404C5.038 34.048 5 33.71 5 33.255V14.496c0-.758.417-1.458 1.094-1.836l16.748-9.38c.677-.379 1.594-.371 2.271.008 3.343 1.872 13.371 7.459 16.714 9.331.27.152.476.335.66.576L5.304 34.404z"/><path fill="#fff" d="M24 10c-7.73 0-14 6.27-14 14s6.27 14 14 14 14-6.27 14-14-6.27-14-14-14zm0 21c-3.86 0-7-3.14-7-7s3.14-7 7-7 7 3.14 7 7-3.14 7-7 7z"/><path fill="#00e676" d="M42.485 13.205c.516.483.506 1.211.506 1.784 0 3.795-.032 14.589.009 18.384.004.396-.127.813-.323 1.127L23.593 24l18.892-10.795z"/><path fill="#fff" d="M34 20h1v8h-1zm3 0h1v8h-1z"/><path fill="#fff" d="M32 25h8v1h-8zm0-3h8v1h-8z"/></svg>

<svg xmlns="http://www.w3.org/2000/svg" viewBox="0 0 48 48" width="96px" height="96px"><path fill="#00c853" d="M22.903,3.286c0.679-0.381,1.515-0.381,2.193,0c3.355,1.883,13.451,7.551,16.807,9.434 C42.582,13.1,43,13.804,43,14.566c0,3.766,0,15.101,0,18.867c0,0.762-0.418,1.466-1.097,1.847 c-3.355,1.883-13.451,7.551-16.807,9.434c-0.679,0.381-1.515,0.381-2.193,0c-3.355-1.883-13.451-7.551-16.807-9.434 C5.418,34.899,5,34.196,5,33.434c0-3.766,0-15.101,0-18.867c0-0.762,0.418-1.466,1.097-1.847 C9.451,10.837,19.549,5.169,22.903,3.286z"/><path fill="#69f0ae" d="M5.304,34.404C5.038,34.048,5,33.71,5,33.255c0-3.744,0-15.014,0-18.759 c0-0.758,0.417-1.458,1.094-1.836c3.343-1.872,13.405-7.507,16.748-9.38c0.677-0.379,1.594-0.371,2.271,0.008 c3.343,1.872,13.371,7.459,16.714,9.331c0.27,0.152,0.476,0.335,0.66,0.576L5.304,34.404z"/><path fill="#fff" d="M24,10c-7.73,0-14,6.27-14,14s6.27,14,14,14s14-6.27,14-14S31.73,10,24,10z M24,31 c-3.86,0-7-3.14-7-7s3.14-7,7-7s7,3.14,7,7S27.86,31,24,31z"/><path fill="#00e676" d="M42.485,13.205c0.516,0.483,0.506,1.211,0.506,1.784c0,3.795-0.032,14.589,0.009,18.384 c0.004,0.396-0.127,0.813-0.323,1.127L23.593,24L42.485,13.205z"/><path fill="#fff" d="M34 20H35V28H34zM37 20H38V28H37z"/><path fill="#fff" d="M32 25H40V26H32zM32 22H40V23H32z"/></svg>
